X:1
T:Gran miracol
T:Madalena Casulana
T:Source : Secondo libro de madrigali a quattro voci---Venetia---G.Scotto---1570. Editor : André Vierendeels (17/08/17).
T:Gran miracol
T:©
T:©
T:©
C:Madalena Casulana
Z:©
%%score [ 1 2 3 4 ]
L:1/8
Q:1/4=120
M:2/2
K:C
V:1 treble nm="Soprano" snm="S"
V:2 treble nm="Alto" snm="A"
V:3 treble-8 nm="Tenor" snm="T"
V:4 bass nm="Bass" snm="B"
V:1
 z4 G4- | G2 G2 c4 | A2 A2 B4 | G2 G2 A2 A2- | AA A2 d4 | c4 c2 B2 | A4 B2 B2 | c2 c2 A4 | G4 A4 | %9
w: Gran|_ mi- ra-|col d'a- mo-|re, quel che'uc- ci-|* de da vit'|e'in un si|sfa- ce, l'al-|ma s'a- vi-|v'e mo-|
 D4 z2 D2 | G6 G2 | A2 A2 c4 | B2 G2 G2 A2 |"^b" F2 B2 A3 B | c2 c2 c2 A2 | G4 A2 A2- | A2 A2 c4 | %17
w: re, che|men- tr'es-|ser piu'in vi-|ta, che men- tr'es-|ser piu'in vi- *|* ta li dis-|pia- ce, tal|_ di mort'|
 B2 B2 A4 | B8 | z4 z2 G2 | G2 D2 FGAB | c4 B4 | A2 A2 A2 E2 | G8 | G2 G2 G2 A2 |"^b" F2 B2 A3 B | %26
w: ha de- si-|o,|che|di lui viv' _ _ _|_ e'in|lui mor el- la'et|i-|o, che men- tr'es-|ser piu'in vi- *|
 c2 c2 c2 A2 | G4 A2 A2- | A2 A2 c4 | B2 B2 A4 | B8 | z4 z2 G2 | G2 D2 FGAB | c4 B4 | A2 A2 A2 E2 | %35
w: * ta li dis-|pia- ce, tal|_ di mort'|ha de- si-|o,|che|di lui viv'- * * *|* e'in|lui mor' el- la'et|
 G8 | G8 |] %37
w: i-|o.|
V:2
 D6 D2 | E4 E2 E2 | F4 D4 | z2 D2 F2 F2- | FF F2 G4 | A4 G2 G2 | E2 F2 G2 G2 | G2 F2 F4 | E4 C4 | %9
w: Gran mi-|ra- col d'a-|mo- re,|quel ch'uc- ci-|* de da vit'|e'in un si|sfa- * ce, l'al-|ma s'a- vi-|v'e mo-|
 B,8 | z2 D2 E2 E2 | C2 F2 E4 | G2 D2 E2 C2 | D2 D2 F2 D2 | G2 A2 GF F2- | FE/D/ E2 F2 ^F2- | %16
w: re,|che men- tr'es-|ser piu'in vi-|ta, che men- tr'es-|ser piu'in vi- ta|li dis- pia- * *|* * * * ce, tal|
 F2 ^F2 G4 | G2 D2 D4 | D8 | z8 | z2 G,2 D2 D2 | CDEF G2 G2 | F2 F2 E2 C2 | D8 | E2 E2 E2 C2 | %25
w: _ di mort'|ha de- si-|o,||che di lui|viv' _ _ _ _ e'in|lui mor el- la'et|i-|o, che men- tr'es-|
 D2 D2 F2 D2 | G2 A2 GF F2- | FE/D/ E2 F2 ^F2- | F2 ^F2 G4 | G2 D2 D4 | D8 | z8 | z2 G,2 D2 D2 | %33
w: ser piu'in vi- ta|li dis- pia- * *|* * * * ce, tal|_ di mort'|ha de- si-|o,||che di lui|
 CDEF G2 G2 | F2 F2 E2 C2 | D8 | E8 |] %37
w: viv'- * * * * e'in|lui mort' el- la'et|i-|o.|
V:3
 G6 G2 | c4 A2 A2 | d4 G4 | z2 B2 c2 c2- | cc d2 d4 | f4 e2 d2 | c4 d2 d2 | e2 A2 c4- | c2 G4 F2 | %9
w: Gran mi-|ra- col d'a-|mo- re,|quel ch'uc- ci-|* de da vit'|e'in un si|sfa- ce, l'al-|ma s'a- vi-|* v'e mo-|
 G8 | z2 B2 B2 c2 | A2 d2 c4 | d2 B2 c2 F2 | _B2 G2 F2 f2 | e2 f2 c4 | c4 z2 d2- | d2 d2 e4 | %17
w: re,|che men- tr'es-|ser piu'in vi-|ta, che men- tr'es-|ser piu'in vi- ta|li dis- pia-|ce, tal|_ di mort'|
 d2 G2 ^F4 | G2 G2 G2 D2 | FGAB c4 | B4 A2 f2 | e2 c2 d4 | d2 d2 c4- | c2 BA B4 | c2 c2 c2 F2 | %25
w: ha de- si-|o, che di lui|viv' _ _ _ _|e'in lui mor|el- la'et i-|o, et i-||o, che men- tr'es-|
 _B2 G2 F2 f2 | e2 f2 c4 | c4 z2 d2- | d2 d2 e4 | d2 G2 ^F4 | G2 G2 G2 D2 | FGAB c4 | B4 A2 f2 | %33
w: ser piu'in vi- ta|li dis- pia-|ce, tal|_ di mort'|ha de- si-|o, che di lui|viv' _ _ _ _|e'in lui mort'|
 e2 c2 d4 | d2 d2 c4- | c2 BA B4 | c8 |] %37
w: el- la'et i-|o et i-||o.|
V:4
 z8 | z8 | z8 | z2 G,2 F,2 F,2- | F,F, D,2 B,4 | F,4 C2 G,2 | A,4 G,2 G,2 | E,2 F,2 F,G,A,B, | %8
w: |||Quel ch'uc- ci-|* de da vit'|e'in un si|sfa- ce, l'al-|ma s'a- vi- * * *|
"^-natural" C2 C,2 A,,4 | G,,4 z2 G,2 | G,4 E,4 | F,2 D,2 A,4 | G,4 z4 | z4 z2 D,2 | %14
w: * v'e mo-|re, che|men- tr'es-|ser piu'in vi-|ta,|piu'in|
 C,2 F,2 E,2 F,2 | C,4 F,2 D,2- | D,2 D,2 C,4 | G,,2 G,,2 D,4 | G,,4 z2 G,,2 | D,2 D,2 C,D,E,F, | %20
w: vi- ta li dis-|pia- ce, tal|_ di mort'|ha de- si-|o, che|di lui viv' _ _ _|
"^-natural" G,4 D,4 | A,4 G,4 | D,4 A,4 | G,8 | C,4 z4 | z4 z2 D,2 | C,2 F,2 E,2 F,2 | %27
w: _ e'in|lui mor|el- la'et|i-|o,|piu'in|vi- ta li dis-|
 C,4 F,2 D,2- | D,2 D,2 C,4 | G,,2 G,,2 D,4 | G,,4 z2 G,,2 | D,2 D,2 C,D,E,F, | G,4 D,4 | A,4 G,4 | %34
w: pia- ce, tal|_ di mort'|ha de- si-|o, che|di lui viv' _ _ _|_ e'in|lui mort'|
 D,4 A,4 | G,8 | C,8 |] %37
w: el- la'et|i-|o.|

